sirius_gui/src/main/resources/icons/circular-icons-svg/c-list-add.svg

<?xml version="1.0" encoding="UTF-8" standalone="no"?>
<svg
   width="64px"
   height="64px"
   viewBox="0 0 64 64"
   version="1.1"
   id="svg595"
   sodipodi:docname="c-list-add.svg"
   inkscape:version="1.2 (dc2aeda, 2022-05-15)"
   xmlns:inkscape="http://www.inkscape.org/namespaces/inkscape"
   xmlns:sodipodi="http://sodipodi.sourceforge.net/DTD/sodipodi-0.dtd"
   xmlns="http://www.w3.org/2000/svg"
   xmlns:svg="http://www.w3.org/2000/svg">
  <sodipodi:namedview
     id="namedview597"
     pagecolor="#ffffff"
     bordercolor="#000000"
     borderopacity="0.25"
     inkscape:showpageshadow="2"
     inkscape:pageopacity="0.0"
     inkscape:pagecheckerboard="0"
     inkscape:deskcolor="#d1d1d1"
     showgrid="false"
     inkscape:zoom="3.2748371"
     inkscape:cx="-0.45803805"
     inkscape:cy="27.329603"
     inkscape:window-width="1594"
     inkscape:window-height="731"
     inkscape:window-x="0"
     inkscape:window-y="39"
     inkscape:window-maximized="0"
     inkscape:current-layer="g5979" />
  <!-- Generator: Sketch 3.4 (15575) - http://www.bohemiancoding.com/sketch -->
  <title
     id="title585">c-math-add</title>
  <desc
     id="desc587">Created with Sketch.</desc>
  <defs
     id="defs589" />
  <g
     id="g5979">
    <path
       id="Rectangle-1"
       style="fill:#8ee481;fill-opacity:1;fill-rule:evenodd;stroke:none;stroke-width:2.31885"
       d="M 23.187501,23.187501 H 0 V 40.812499 H 23.187501 V 64 H 40.812499 V 40.812499 H 64 V 23.187501 H 40.812499 V 0 H 23.187501 Z"
       sodipodi:nodetypes="ccccccccccccc" />
  </g>
</svg>

<?xml version="1.0" encoding="UTF-8"?>
<svg id="svg595" width="64px" height="64px" version="1.1" viewBox="0 0 64 64" xmlns="http://www.w3.org/2000/svg">
 <!-- Generator: Sketch 3.4 (15575) - http://www.bohemiancoding.com/sketch -->
 <title id="title585">c-math-add</title>
 <desc id="desc587">Created with Sketch.</desc>
 <g id="g5979">
  <path id="Rectangle-1" d="m23.188 23.188h-23.188v17.625h23.188v23.188h17.625v-23.188h23.188v-17.625h-23.188v-23.188h-17.625z" fill="#8ee481" fill-rule="evenodd"/>
 </g>
</svg>
